Portfolio/cineq/images/common/logo.svg

<svg width="126" height="48" viewBox="0 0 126 48" fill="none" xmlns="http://www.w3.org/2000/svg">
<path d="M12.1661 33.8863C10.5694 33.8863 9.06584 33.6147 7.65146 33.0798C6.23707 32.5407 4.57953 31.7261 3.48936 30.6359C2.39919 29.5456 1.54812 28.2001 0.928063 26.5951C0.312056 24.9902 0 23.1299 0 21.0184C0 18.9068 0.320162 17.0709 0.960485 15.4416C1.60081 13.8123 2.47619 12.4384 3.58662 11.3158C4.69706 10.1931 6.37892 9.33795 7.81357 8.75433C8.2391 8.58006 9.001 8.35715 9.50353 8.25177C10.8288 7.98023 11.2381 7.87891 12.3607 7.87891C13.998 7.87891 15.465 8.20314 16.7578 8.85565C18.0506 9.50817 19.1205 10.2701 19.9757 11.1455L16.8429 14.9877C16.2148 14.4041 15.5501 13.9339 14.8571 13.5732C14.1601 13.2125 13.3617 13.0342 12.466 13.0342C11.388 13.0342 9.58864 13.3422 8.693 13.9623C7.7933 14.5783 7.08003 15.4659 6.55318 16.625C6.02633 17.7801 5.76291 19.1784 5.76291 20.8198C5.76291 22.4612 6.00202 23.904 6.48834 25.0794C6.97061 26.2588 8.05673 27.1585 8.9321 27.7745C9.80748 28.3906 10.8288 28.7026 11.9959 28.7026C13.005 28.7026 14.3141 28.4797 15.1124 28.0299C15.9108 27.58 16.5998 27.041 17.1834 26.4128L20.3485 30.186C19.2908 31.4221 18.0749 32.3462 16.693 32.9663C15.311 33.5864 13.7994 33.8944 12.1621 33.8944L12.1661 33.8863Z" fill="#ED1C24"/>
<path d="M26.4189 33.4119V10.351C26.4189 10.128 26.35 9.90919 26.2163 9.72681L25.2031 8.31641H31.2335V33.4119H26.4189Z" fill="#ED1C24"/>
<path d="M43.2092 15.9034C43.3997 17.5327 43.4969 23.5674 43.4969 25.0954V33.4159H38.1758V10.5698L36.96 8.31641H44.3075L50.5405 20.3413L53.0005 25.8978M52.6398 25.0508C52.4493 23.3769 52.352 18.1406 52.352 16.637V8.31641H57.6732V33.4119H51.9468L45.7502 21.3181L42.4797 15.0158" fill="#ED1C24"/>
<path d="M65.0859 33.4119V10.7279L63.8701 8.31641H83.0109V12.9286H70.711V18.7931H80.3159V22.2259H70.711V28.7632H82.9785V33.4119H65.0859Z" fill="#ED1C24"/>
<path d="M101.045 26.465V10.1116L94.1193 14.4765L91.1244 9.72656H91.0596V33.1158L94.5408 23.9846L101.045 26.465Z" fill="#ED1C24"/>
<path d="M101.045 8.39117L102.703 9.07205L99.5094 7.75892L101.434 3.08594L91.0596 9.62325L91.1244 9.72862H101.045V8.39117Z" fill="#ED1C24"/>
<path d="M101.046 10.1116V9.72656H91.125L94.1199 14.4765L101.046 10.1116Z" fill="#ED1C24"/>
<path d="M102.703 9.06805L111.003 12.4846V5.9919H120.754L120.774 5.94327L107.797 0.601562L110.168 4.36264L102.703 9.06805Z" fill="#ED1C24"/>
<path d="M102.703 9.07036L110.168 4.36496L107.797 0.60388L106.334 0L101.435 3.08425L99.5098 7.75723L102.703 9.07036Z" fill="#ED1C24"/>
<path d="M111.003 12.4869V30.2669L115.684 32.0502L113.848 34.1941L120.774 29.3388V5.99414H120.754L117.054 14.9794L111.003 12.4869Z" fill="#ED1C24"/>
<path d="M111.003 12.4869L117.054 14.9794L120.754 5.99414H111.003V12.4869Z" fill="#ED1C24"/>
<path d="M102.392 36.9599L107.676 28.9959L101.046 26.4629V33.2191H91.3359L104.082 38.0785L102.392 36.9599Z" fill="#ED1C24"/>
<path d="M101.045 26.4667L94.5408 23.9863L91.0596 33.1175L91.3351 33.2229H101.045V26.4667Z" fill="#ED1C24"/>
<path d="M111.003 30.2676V30.9485L114.46 33.4045L115.238 33.2221L115.684 32.0508L111.003 30.2676Z" fill="#ED1C24"/>
<path d="M104.081 38.0822L119.805 47.0674L125.208 38.9251L115.076 33.6523L112.203 41.1826L104.081 38.0822Z" fill="#ED1C24"/>
<path d="M111.003 33.2241V30.2695L108.575 29.3414L106.954 28.7578L102.391 36.9649L104.081 38.0835L112.202 41.184L115.076 33.6537L114.427 33.2241H111.003Z" fill="#ED1C24"/>
<path d="M114.427 33.2229L111.003 30.9492V33.2229H114.427Z" fill="#ED1C24"/>
<path opacity="0.1" d="M119.971 47.1953L109.844 41.3916L114.829 33.4844L125.207 38.9233L119.971 47.1953Z" fill="#231F20"/>
</svg>

<?xml version="1.0" encoding="UTF-8"?>
<svg id="Layer_1" xmlns="http://www.w3.org/2000/svg" version="1.1" viewBox="0 0 126 48">
  <!-- Generator: Adobe Illustrator 30.0.0, SVG Export Plug-In . SVG Version: 2.1.1 Build 123)  -->
  <defs>
    <style>
      .st0 {
        fill: none;
      }

      .st1 {
        fill: #231f20;
        isolation: isolate;
        opacity: .1;
      }

      .st2 {
        fill: #ed1c24;
      }
    </style>
  </defs>
  <path class="st2" d="M12.17,33.89c-1.6,0-3.1-.27-4.51-.81-1.41-.54-3.07-1.35-4.16-2.44-1.09-1.09-1.94-2.44-2.56-4.04-.62-1.6-.93-3.47-.93-5.58s.32-3.95.96-5.58c.64-1.63,1.52-3,2.63-4.13,1.11-1.12,2.79-1.98,4.23-2.56.43-.17,1.19-.4,1.69-.5,1.33-.27,1.73-.37,2.86-.37,1.64,0,3.1.32,4.4.98,1.29.65,2.36,1.41,3.22,2.29l-3.13,3.84c-.63-.58-1.29-1.05-1.99-1.41-.7-.36-1.5-.54-2.39-.54-1.08,0-2.88.31-3.77.93-.9.62-1.61,1.5-2.14,2.66-.53,1.16-.79,2.55-.79,4.19s.24,3.08.73,4.26c.48,1.18,1.57,2.08,2.44,2.7.88.62,1.9.93,3.06.93,1.01,0,2.32-.22,3.12-.67.8-.45,1.49-.99,2.07-1.62l3.17,3.77c-1.06,1.24-2.27,2.16-3.66,2.78-1.38.62-2.89.93-4.53.93h0Z"/>
  <path class="st2" d="M26.42,33.41V10.35c0-.22-.07-.44-.2-.62l-1.01-1.41h6.03v25.1h-4.81Z"/>
  <path class="st2" d="M43.21,15.9c.19,1.63.29,7.66.29,9.19v8.32h-5.32V10.57l-1.22-2.25h7.35l6.23,12.02,2.46,5.56M52.64,25.05c-.19-1.67-.29-6.91-.29-8.41v-8.32h5.32v25.1h-5.73l-6.2-12.09-3.27-6.3"/>
  <path class="st2" d="M65.09,33.41V10.73l-1.22-2.41h19.14v4.61h-12.3v5.86h9.6v3.43h-9.6v6.54h12.27v4.65h-17.89Z"/>
  <g>
    <rect class="st0" x="92.62" y="9.3" width="0" height="5.61" transform="translate(7.82 51.27) rotate(-32.23)"/>
    <polygon class="st0" points="102.39 36.96 102.4 36.94 102.39 36.96 102.39 36.96"/>
    <polygon class="st0" points="111 30.95 111 30.95 111.02 30.96 111 30.95"/>
    <rect class="st0" x="111" y="33.22" width="3.2" height="0"/>
    <polygon class="st2" points="125.21 38.92 125.16 38.99 125.21 38.93 125.21 38.92"/>
    <path class="st2" d="M114.83,33.49h0s.02,0,.02,0l.39-.27h0s0,0,0,0l5.53-3.88V5.99h-9.77s9.75,0,9.75,0l.02-.05-12.98-5.34,2.37,3.76h0s-2.37-3.76-2.37-3.76l-1.46-.6-4.9,3.08-.96,2.32.95-2.32-10.37,6.54.06.1h-.06v23.39l3.48-9.13,6.5,2.48V10.11h0v-.39h0v-1.34l1.66.68-3.19-1.31h0s3.19,1.31,3.19,1.31h0s8.3,3.41,8.3,3.41h0v17.78l4.68,1.78h0s-4.68-1.78-4.68-1.78h0s-2.43-.93-2.43-.93l-.91-.33v-.02s-6.62-2.53-6.62-2.53v6.76h0v-6.75l-6.5-2.48-3.48,9.13.28.11h.01l12.72,4.85h.02s0,.02,0,.02l5.76,3.29.56-.88,4.42-7.01ZM94.12,14.48l-2.99-4.75h0l2.99,4.75h0ZM111,30.95h.02s-.02,0-.02,0h0ZM111,33.22h3.2s-3.2,0-3.2,0h0ZM102.39,36.96h0s.01-.02.01-.02v.02Z"/>
    <polygon class="st1" points="109.85 41.38 109.84 41.39 119.97 47.2 125.16 38.99 119.8 47.07 109.85 41.38"/>
    <polygon class="st1" points="115.08 33.65 115.08 33.65 125.21 38.92 125.21 38.92 114.85 33.49 114.84 33.5 115.08 33.65"/>
    <polygon class="st1" points="112.2 41.18 113.5 37.78 112.2 41.18 112.2 41.18"/>
    <path class="st2" d="M115.08,33.65h0s-.23-.15-.23-.15h0s-.02-.01-.02-.01h0s-4.42,7.01-4.42,7.01l-.56.88,9.95,5.69,5.36-8.07.04-.07-10.13-5.27ZM112.2,41.18h0s1.3-3.4,1.3-3.4l-1.3,3.4Z"/>
    <path class="st1" d="M115.08,33.65h0s-.23-.15-.23-.15h0s-.02-.01-.02-.01h0s-4.42,7.01-4.42,7.01l-.56.88,9.95,5.69,5.36-8.07.04-.07-10.13-5.27ZM112.2,41.18h0s1.3-3.4,1.3-3.4l-1.3,3.4Z"/>
  </g>
</svg>
